lib/brands/logos/angular.svg

<svg xmlns="http://www.w3.org/2000/svg" fill="none" aria-hidden="true" viewBox="0 0 198 60"><g id="Angular"><g id="Group"><g id="Union"><path fill="#B52E31" d="M150.536 42.0644H147.5L158.678 16.6001L169.857 42.0644H166.643L163.75 34.9929H156.321L157.107 32.6358H162.786L158.571 22.4572L150.536 42.0644Z"/><path fill="#B52E31" d="M97.2856 42.2071C99.357 42.2071 101.321 41.85 103.143 41.1714V31.85H100.25V39.3857C99.0713 39.6357 97.9999 39.7786 97.0356 39.7786C90.9999 39.7786 87.9642 36.6714 87.9642 30.4214C87.9642 24.6357 91.0356 21.7071 97.1784 21.7071C99.2142 21.7071 101.214 22.0643 103.143 22.8143V20.3143C101.214 19.7071 99.107 19.3857 96.857 19.3857C88.9999 19.3857 85.0713 23.1 85.0713 30.4929C85.0713 38.3143 89.1427 42.2071 97.2856 42.2071Z"/><path fill="#B52E31" d="M61.3571 19.5643V42.0643H64.1071V23.7786L77.8571 42.0643H80.7499V19.5643H77.9999V37.6714L64.2499 19.5643H61.3571Z"/><path fill="#B52E31" d="M107.786 33.3857V19.5643H110.678V33.3857C110.678 37.7071 112.821 39.8857 117.143 39.8857C121.428 39.8857 123.607 37.7071 123.607 33.3857V19.5643H126.5V33.3857C126.5 39.2786 123.393 42.2429 117.143 42.2429C110.893 42.2429 107.786 39.2786 107.786 33.3857Z"/><path fill="#B52E31" d="M134.571 39.7071V19.5643H131.678V42.0643H146.357V39.7071H134.571Z"/><path fill="#B52E31" d="M172.964 19.5643V42.0643H175.928V21.9929H182.357C184.75 21.9929 185.928 23.0286 185.928 25.1C185.928 27.7429 183.75 29.3857 179.464 30.0643V31.9571L186.607 42.0643H190.428L182.714 31.4571C186.893 30.0643 189 27.8857 189 24.9571C189 21.35 186.857 19.5643 182.571 19.5643H172.964Z"/></g><g id="Group_2"><path id="Vector" fill="#E23237" fill-rule="evenodd" d="M7.57144 13.5644L30.6072 5.35007L54.25 13.4215L50.4286 43.8858L30.6072 54.8501L11.1072 44.0286L7.57144 13.5644Z" clip-rule="evenodd"/><path id="Vector_2" fill="#B52E31" fill-rule="evenodd" d="M54.2501 13.4215L30.6072 5.35007V54.8501L50.4287 43.8858L54.2501 13.4215Z" clip-rule="evenodd"/><path id="Vector_3" fill="white" fill-rule="evenodd" d="M30.6428 11.1358L16.2857 43.0644L21.6428 42.9573L24.5357 35.743H30.6428H37.3571L40.5 43.0287L45.6071 43.1358L30.6428 11.1358ZM30.6786 21.3858L35.5357 31.5287H30.8928H30.6428H26.4286L30.6786 21.3858Z" clip-rule="evenodd"/></g></g></g></svg>

<svg xmlns="http://www.w3.org/2000/svg" fill="none" aria-hidden="true" viewBox="0 0 198 60"><path fill="#B52E31" d="M150.536 42.064H147.5L158.678 16.6l11.179 25.464h-3.214l-2.893-7.071h-7.429l.786-2.357h5.679l-4.215-10.179-8.035 19.607Zm-53.25.143c2.071 0 4.035-.357 5.857-1.036V31.85h-2.893v7.536c-1.179.25-2.25.393-3.214.393-6.036 0-9.072-3.108-9.072-9.358 0-5.785 3.072-8.714 9.214-8.714 2.036 0 4.036.357 5.965 1.107v-2.5c-1.929-.607-4.036-.928-6.286-.928-7.857 0-11.786 3.714-11.786 11.107 0 7.821 4.072 11.714 12.215 11.714ZM61.357 19.564v22.5h2.75V23.78l13.75 18.285h2.893v-22.5H78v18.107L64.25 19.564h-2.893Zm46.429 13.822V19.564h2.892v13.822c0 4.321 2.143 6.5 6.465 6.5 4.285 0 6.464-2.179 6.464-6.5V19.564h2.893v13.822c0 5.893-3.107 8.857-9.357 8.857-6.25 0-9.357-2.964-9.357-8.857Zm26.785 6.321V19.564h-2.893v22.5h14.679v-2.357h-11.786Zm38.393-20.143v22.5h2.964V21.993h6.429c2.393 0 3.571 1.036 3.571 3.107 0 2.643-2.178 4.286-6.464 4.964v1.893l7.143 10.107h3.821l-7.714-10.607c4.179-1.393 6.286-3.571 6.286-6.5 0-3.607-2.143-5.393-6.429-5.393h-9.607Z"/><g fill-rule="evenodd" clip-rule="evenodd"><path fill="#E23237" d="M7.571 13.564 30.607 5.35l23.643 8.072-3.821 30.464L30.607 54.85l-19.5-10.821-3.536-30.465Z"/><path fill="#B52E31" d="m54.25 13.421-23.643-8.07v49.5L50.43 43.885l3.82-30.465Z"/><path fill="#fff" d="M30.643 11.136 16.286 43.064l5.357-.107 2.893-7.214h12.821l3.143 7.286 5.107.107-14.964-32Zm.036 10.25 4.857 10.143h-9.107l4.25-10.143Z"/></g></svg>
